X: 1
T: La Boite A Frisson
M: 3/4
L: 1/8
R: waltz
K: Amin
&quot;Am&quot;AB cA ec|&quot;Am/G&quot;B2 AB cA|&quot;Am&quot;ec BA Bc|&quot;F&quot;f4 fe|
&quot;Dm&quot;de fe fd|&quot;G&quot;B2 &quot;Am&quot;AB &quot;G/B&quot;cd|&quot;C&quot;ed ce dc|&quot;E7/B&quot;B2 dB cB|
&quot;Am&quot;AB cA ec|&quot;Am/G&quot;B2 AB cA|&quot;Am&quot;ec BA Bc|&quot;F&quot;f4 fe|
&quot;Dm&quot;de fa fd|&quot;C&quot;cB ce dc|&quot;E7/B&quot;BA Bd Bc|1&quot;Am&quot;A2 &quot;E7&quot;E4:|2&quot;Am&quot;A2 EA Bc||
|:&quot;G&quot;B2 BA &quot;G/B&quot;Bd|&quot;C&quot;cB cd ec|&quot;Dm&quot;dc de fg|&quot;Em7&quot;e2 e2 e2|
&quot;F&quot;fc Ac fc|&quot;C&quot;ec Gc ec|&quot;D&quot;dA ^FA &quot;D/F#&quot;dA|&quot;G&quot;B2 BA GA|
&quot;G&quot;BA &quot;Am&quot;Bc &quot;G/B&quot;dB|&quot;C&quot;cB cd ec|&quot;Dm&quot;dc de fg|&quot;Em7&quot;e2 e2 e2|
&quot;F&quot;fd fa fd|&quot;C&quot;cB ce dc|&quot;E7/B&quot;BA Bd Bc|1&quot;Am&quot;A2 EA Bc:|2&quot;Am&quot;A2 &quot;E7&quot;E4||
